assets/pagespeedinsights/original.svg

<svg viewBox="0 0 24 24" xmlns="http://www.w3.org/2000/svg" fill="#4285F4"><path d="m22.363 1.636h-20.728c-.903 0-1.635.734-1.634 1.637l-.001 17.454v.003c0 .903.733 1.634 1.635 1.634h20.73c.904 0 1.635-.734 1.635-1.637v-17.454c.016-.89-.76-1.64-1.637-1.637zm-18.384 1.25c.492-.507 1.279.28.77.772-.491.508-1.278-.279-.77-.771zm-2.179.004c.507-.509 1.28.265.772.771-.493.502-1.274-.28-.772-.771zm21.7 17.838c.012.611-.524 1.148-1.137 1.136h-20.728a1.137 1.137 0 0 1 -1.135-1.137l.001-15.817h22.999v15.819zm-12.5-4.569 5.946-4.577c.235-.2.576.129.389.372l-.002-.002-3.936 6.35a1.638 1.638 0 0 1 -2.448.405c-.785-.668-.811-1.835.05-2.548zm4.763-.75c.09-.168 2.002-3.181 2.06-3.35 2.056 1.813 3.029 4.382 2.898 7.026h-3.819c.073-1.39-.29-2.678-1.139-3.676zm-8.679 3.682h-3.806c-.357-7.022 7.148-11.735 13.39-7.92l-3.461 2.618c-3.3-.762-6.364 1.71-6.123 5.302z"/></svg>

<svg xmlns="http://www.w3.org/2000/svg" fill="#4285f4" viewBox="0 0 24 24"><path d="M22.363 1.636H1.635C.732 1.636 0 2.37.001 3.273L0 20.727v.003c0 .903.733 1.634 1.635 1.634h20.73c.904 0 1.635-.734 1.635-1.637V3.273c.016-.89-.76-1.64-1.637-1.637M3.979 2.886c.492-.507 1.279.28.77.772-.491.508-1.278-.279-.77-.771zM1.8 2.89c.507-.509 1.28.265.772.771-.493.502-1.274-.28-.772-.771m21.7 17.838c.012.611-.524 1.148-1.137 1.136H1.635A1.137 1.137 0 0 1 .5 20.727L.501 4.91H23.5zM11 16.159l5.946-4.577c.235-.2.576.129.389.372l-.002-.002-3.936 6.35a1.638 1.638 0 0 1-2.448.405c-.785-.668-.811-1.835.05-2.548zm4.763-.75c.09-.168 2.002-3.181 2.06-3.35 2.056 1.813 3.029 4.382 2.898 7.026h-3.819c.073-1.39-.29-2.678-1.139-3.676m-8.679 3.682H3.278c-.357-7.022 7.148-11.735 13.39-7.92l-3.461 2.618c-3.3-.762-6.364 1.71-6.123 5.302"/></svg>
